icon-svg/rooms-dining.svg

<svg xmlns="http://www.w3.org/2000/svg" fill="#44739e" viewBox="0 0 24 24"><path d="M24 3c1.1 0 2 .9 2 2v22c0 1.1-.9 2-2 2s-2-.9-2-2V16.251c-1.601-1.15-3-3.514-3-6.25 0-3.764 2.646-6.825 4.824-6.983.059-.005.115-.018.176-.018M14 17.791V27c0 1.104-.896 2-2 2s-2-.896-2-2v-9.209c0-.508-.193-.997-.541-1.368l-.295-.315A7.996 7.996 0 0 1 7 10.637V4c0-.55.45-1 1-1s1 .45 1 1v5c0 .55.45 1 1 1s1-.45 1-1V4c0-.55.45-1 1-1s1 .45 1 1v5c0 .55.45 1 1 1s1-.45 1-1V4c0-.55.45-1 1-1s1 .45 1 1v6.637c0 2.032-.773 3.988-2.164 5.47l-.295.316c-.348.371-.541.859-.541 1.368"/></svg>

<?xml version="1.0" encoding="UTF-8"?>
<svg width="32px" height="32px" viewBox="0 0 32 32" fill="#44739e" version="1.1" xmlns="http://www.w3.org/2000/svg" xmlns:xlink="http://www.w3.org/1999/xlink">
            <path d="M24,3 C25.1,3 26,3.9 26,5 L26,27 C26,28.1 25.1,29 24,29 C22.9,29 22,28.1 22,27 L22,16.251 C20.399,15.101 19,12.737 19,10.001 C19,6.237 21.646,3.176 23.824,3.018 C23.883,3.013 23.939,3 24,3 Z M14,17.791 L14,27 C14,28.104 13.104,29 12,29 C10.896,29 10,28.104 10,27 L10,17.791 C10,17.283 9.807,16.794 9.459,16.423 L9.164,16.108 C7.773,14.625 7,12.669 7,10.637 L7,9 L7,4 C7,3.45 7.45,3 8,3 C8.55,3 9,3.45 9,4 L9,9 C9,9.55 9.45,10 10,10 C10.55,10 11,9.55 11,9 L11,4 C11,3.45 11.45,3 12,3 C12.55,3 13,3.45 13,4 L13,9 C13,9.55 13.45,10 14,10 C14.55,10 15,9.55 15,9 L15,4 C15,3.45 15.45,3 16,3 C16.55,3 17,3.45 17,4 L17,9 L17,10.637 C17,12.669 16.227,14.625 14.836,16.107 L14.541,16.423 C14.193,16.794 14,17.282 14,17.791 Z"></path>
</svg>
